ids-wordpress/site-IdS/assets/images/projetos/icones-ferramentasetec/React.svg

<svg width="36" height="36" viewBox="0 0 36 36" fill="none" xmlns="http://www.w3.org/2000/svg">
<g clip-path="url(#clip0_694_1610)">
<path d="M16.8115 0.135975C25.767 -0.431038 34.0946 5.34184 35.6993 14.3202C38.4747 29.8566 21.4364 40.8898 8.3241 32.1462C-0.229286 26.4418 -1.84407 14.1794 4.72161 6.29827C7.59219 2.8518 12.3135 0.421384 16.8115 0.135975ZM18.2221 1.09622C3.89709 1.1774 -3.59077 17.9265 5.90384 28.6756C14.5016 38.4087 30.7332 34.5804 34.328 22.1924C37.4193 11.5358 29.178 1.03406 18.2221 1.09622Z" fill="#F75705"/>
<path d="M6.66378 15.443C7.73438 14.3546 9.48996 13.8232 10.931 13.4337C10.6658 11.994 10.4223 10.4655 10.5568 8.99403C10.6823 7.62153 11.5145 6.51161 12.9479 6.38983C15.1309 6.2059 16.7432 7.95768 18.33 9.14498C19.6835 8.15683 21.1588 6.55093 22.9422 6.39364C26.9354 6.04227 26.239 10.9132 25.7532 13.4388C27.4821 13.9284 30.1371 14.706 30.8183 16.5745C31.5857 18.6814 29.6157 20.21 27.9274 20.9825C27.6293 21.1195 25.8813 21.7271 25.8217 21.8235C25.7519 21.9376 26.0944 23.692 26.1147 24.0306C26.1883 25.2598 26.2035 27.193 25.2496 28.1025C23.1668 30.0877 19.9689 27.3832 18.3376 25.9905C16.7964 27.349 14.3165 29.5549 12.1043 28.5591C9.81343 27.5291 10.5923 23.7808 10.9043 21.8235C9.42781 21.2298 7.64432 20.7389 6.54328 19.5199C5.375 18.2273 5.44984 16.676 6.66251 15.443H6.66378ZM15.5863 12.3885C15.8146 12.1754 16.0912 11.6845 16.3144 11.4206C16.4857 11.219 17.5055 10.1014 17.522 9.99487C17.541 9.94159 17.522 9.89973 17.5004 9.85153C17.4218 9.67775 16.1064 8.65535 15.8578 8.47903C14.3825 7.43633 11.7885 6.43804 11.5715 9.17416C11.4701 10.4591 11.64 11.8671 11.9648 13.1077C12.7677 12.9783 13.5643 12.8096 14.3686 12.6752C14.7719 12.6079 15.273 12.6802 15.5863 12.3872V12.3885ZM23.0222 7.4338C21.6814 7.59997 19.9867 9.00418 19.1469 10.0114L21.2196 12.5331L24.5989 13.1115C24.7397 13.0697 24.831 12.3948 24.8653 12.2223C25.1786 10.586 25.6644 7.1078 23.0222 7.43507V7.4338ZM19.7723 12.4101C19.3486 11.8443 18.9135 11.2228 18.3313 10.808C18.1195 10.808 17.1732 12.1069 16.955 12.3149L19.7723 12.4101ZM17.0679 13.3906C16.6594 13.416 16.2282 13.3614 15.9288 13.6608C15.481 14.1086 14.7757 15.3631 14.4434 15.9542C14.2823 16.2422 13.5986 17.4218 13.6493 17.6629C14.1288 18.5115 14.5284 19.4146 15.0421 20.243C15.4074 20.8315 15.7943 21.6205 16.5351 21.6954C17.4814 21.7905 19.1038 21.7804 20.0564 21.6954C20.6793 21.6396 20.7592 21.4734 21.1029 21.0117C21.5469 20.4155 22.7215 18.4836 22.9118 17.8252C22.9778 17.5969 22.9942 17.5398 22.9118 17.3064C22.6505 16.5682 21.344 14.3585 20.8226 13.761C20.4383 13.3208 19.4044 13.4629 18.84 13.4388C18.2247 13.4122 17.7085 13.3513 17.0679 13.3906ZM14.5829 13.6925L12.2844 14.1479C12.1348 14.3623 12.9555 15.9618 12.9821 16.3183L14.5829 13.6938V13.6925ZM23.6133 16.317C23.6932 16.0164 24.4733 14.3699 24.3553 14.2012C24.0953 14.0477 22.2522 13.6582 22.1406 13.7559L23.612 16.317H23.6133ZM11.2468 14.465C9.86163 14.7162 6.73228 15.7956 6.70057 17.5018C6.66759 19.2206 9.80201 20.3939 11.1517 20.7998L12.4049 17.5601L11.2468 14.465ZM25.4145 14.4663C25.1075 15.5356 24.6889 16.5605 24.2171 17.5652C24.4619 18.2185 24.7625 18.8489 25.0073 19.5034C25.0758 19.6874 25.3524 20.6717 25.4044 20.7059C25.5908 20.8303 26.2352 20.5575 26.4648 20.4802C27.8525 20.0146 30.6407 18.6865 29.773 16.7863C29.1806 15.4887 26.7185 14.7174 25.4132 14.4663H25.4145ZM14.5842 21.4391L12.9834 18.8146L12.2413 20.9952C12.3402 21.1398 14.4726 21.5229 14.5842 21.4391ZM24.3756 21.0459C24.4758 20.8848 23.9088 19.4844 23.7985 19.2383C23.7427 19.1153 23.6577 18.8882 23.5524 18.8134L22.1431 21.4379C22.237 21.5203 24.3008 21.1677 24.3769 21.0459H24.3756ZM11.9851 22.0975C11.8912 22.1152 11.8696 22.3093 11.8481 22.3867C11.5627 23.4027 11.3267 26.2391 11.9039 27.094C13.1001 28.8674 16.2345 26.6095 17.2747 25.5693C17.3952 25.4488 17.5854 25.2902 17.4979 25.0911C17.3977 24.8628 16.7761 24.2869 16.5706 24.0294C16.2104 23.5791 15.892 23.092 15.5051 22.662L11.9851 22.0975ZM24.5583 22.0937L21.1194 22.6911C20.7072 23.2201 20.3203 23.7668 19.8979 24.2869C19.7685 24.4467 19.1863 25.0251 19.1596 25.1469C19.119 25.3321 19.7342 25.8141 19.8991 25.9537C20.8962 26.8023 23.3405 28.5794 24.5456 27.3312C25.3143 26.5359 25.0936 24.3731 24.9503 23.3368C24.9211 23.1237 24.7765 22.1888 24.6395 22.1064L24.5583 22.0924V22.0937ZM19.7076 22.7837H16.9537L18.2691 24.448C18.4581 24.4949 19.563 23.0285 19.7089 22.7837H19.7076Z" fill="#F75705"/>
<path d="M18.1575 15.3747C20.7909 15.1882 21.4797 19.066 18.878 19.7459C15.7893 20.5526 15.0003 15.5979 18.1575 15.3747Z" fill="#F75705"/>
</g>
<defs>
<clipPath id="clip0_694_1610">
<rect width="35.3146" height="35.1383" fill="white" transform="translate(0.685394 0.0982666)"/>
</clipPath>
</defs>
</svg>

<svg xmlns="http://www.w3.org/2000/svg" width="36" height="36" fill="none"><g fill="#F75705" clip-path="url(#a)"><path d="M16.811.136C25.767-.431 34.096 5.342 35.7 14.32c2.776 15.537-14.263 26.57-27.375 17.826C-.229 26.442-1.844 14.18 4.722 6.298 7.592 2.852 12.313.421 16.812.136Zm1.411.96C3.897 1.177-3.59 17.926 5.904 28.676c8.598 9.733 24.83 5.904 28.424-6.484 3.091-10.656-5.15-21.158-16.106-21.096Z"/><path d="M6.664 15.443c1.07-1.088 2.826-1.62 4.267-2.01-.265-1.439-.509-2.967-.374-4.439.125-1.372.957-2.482 2.39-2.604 2.184-.184 3.796 1.568 5.383 2.755 1.354-.988 2.829-2.594 4.612-2.751 3.993-.352 3.297 4.52 2.811 7.045 1.73.49 4.384 1.267 5.065 3.136.768 2.106-1.202 3.635-2.89 4.408-.299.136-2.047.744-2.106.84-.07.115.272 1.869.293 2.208.073 1.229.088 3.162-.865 4.072-2.083 1.985-5.281-.72-6.912-2.113-1.542 1.359-4.022 3.565-6.234 2.57-2.29-1.03-1.512-4.78-1.2-6.736-1.476-.594-3.26-1.085-4.36-2.304-1.169-1.293-1.094-2.844.119-4.077Zm8.922-3.054c.229-.214.505-.704.728-.968.172-.202 1.192-1.32 1.208-1.426.019-.053 0-.095-.022-.143-.078-.174-1.394-1.197-1.642-1.373-1.476-1.043-4.07-2.041-4.287.695-.1 1.285.069 2.693.394 3.934.803-.13 1.6-.298 2.404-.433.403-.067.904.005 1.217-.288v.002Zm7.436-4.955c-1.34.166-3.035 1.57-3.875 2.577l2.073 2.522 3.379.579c.14-.042.232-.717.266-.89.314-1.636.8-5.114-1.843-4.787v-.001Zm-3.25 4.976c-.423-.566-.858-1.187-1.44-1.602-.213 0-1.159 1.299-1.377 1.507l2.817.095Zm-2.704.98c-.409.026-.84-.029-1.14.27-.447.449-1.152 1.703-1.485 2.294-.16.288-.844 1.468-.794 1.709.48.849.88 1.752 1.393 2.58.365.588.752 1.378 1.493 1.452.946.096 2.569.085 3.521 0 .623-.055.703-.222 1.047-.683.444-.596 1.618-2.528 1.809-3.187.066-.228.082-.285 0-.519-.261-.738-1.568-2.948-2.09-3.545-.384-.44-1.418-.298-1.982-.322-.615-.027-1.131-.088-1.772-.048Zm-2.485.303-2.299.455c-.15.214.671 1.814.698 2.17l1.6-2.624v-.002Zm9.03 2.624c.08-.3.86-1.947.742-2.116-.26-.153-2.103-.543-2.214-.445l1.471 2.561h.001Zm-12.366-1.852c-1.385.251-4.515 1.33-4.546 3.037-.033 1.719 3.101 2.892 4.45 3.298l1.254-3.24-1.158-3.095Zm14.168.001c-.307 1.07-.726 2.095-1.198 3.1.245.652.546 1.283.79 1.937.069.184.345 1.169.397 1.203.187.124.831-.148 1.06-.226 1.389-.465 4.177-1.794 3.309-3.694-.592-1.297-3.055-2.069-4.36-2.32h.002Zm-10.83 6.973-1.602-2.624-.742 2.18c.1.145 2.232.528 2.343.444Zm9.79-.393c.1-.161-.466-1.562-.576-1.808-.056-.123-.141-.35-.247-.425l-1.409 2.625c.094.082 2.158-.27 2.234-.392h-.001Zm-12.39 1.052c-.094.017-.115.211-.137.289-.285 1.016-.521 3.852.056 4.707 1.196 1.773 4.33-.485 5.37-1.525.121-.12.311-.279.224-.478-.1-.228-.722-.804-.927-1.062-.36-.45-.679-.937-1.066-1.367l-3.52-.564Zm12.573-.004-3.439.597c-.412.53-.799 1.076-1.221 1.596-.13.16-.712.738-.738.86-.041.185.574.667.74.807.996.848 3.44 2.625 4.646 1.377.768-.795.548-2.958.404-3.994-.029-.213-.174-1.148-.31-1.23l-.082-.015v.002Zm-4.85.69h-2.754l1.315 1.664c.19.047 1.294-1.42 1.44-1.664h-.001Z"/><path d="M18.157 15.375c2.634-.187 3.323 3.691.721 4.37-3.089.808-3.878-4.147-.72-4.37Z"/></g><defs><clipPath id="a"><path fill="#fff" d="M.685.098H36v35.138H.685z"/></clipPath></defs></svg>
